X: 4
T: Spanish Lady
R: polka
M: 2/4
L: 1/8
K: Amaj
B2|:AA AB|dd de|f/f/f/f/ f>e|dB Bf/e/|AA AB|dd de|fa a>f|ed d2:|
e|:fa a>f|ed d>e|fa a>f|ed e2|fa a>f|ed d>e|f/g/f/e/ f>e| dB B2:|


Tune 1117	Setting 14378

